X: 19
T:Ebb and Flow
C:Carl Jones
M:4/4
L:1/8
K:Dmaj
D2|:F4F4|FEDC ~B,2A,2|DEFD GABG|~A2A2F2F2|~E6DE|
F4F4|FEDC ~B,2A,2|DEFD GABG|~A2A2B2 ((3ABc)|1 d6D2:|2 d6 ((3ABc)||
|:defd e2c2|[M:6/4]dc~BA B4-B2 ~A2|[M:4/4]defd e2c2|
[M:6/4]BdAF ~E4-E2 ~A2|[M:4/4]defd e2c2|[M:6/4]dc~BA B4-B2 cd|
[M:4/4]~A2F2GFED|CDEG FDEC|1D6A2:|2 D6|]

